X:40
T:Cotillon
R:Cotillon
C:anonyme
H:
N:2, p 2
B:
O:France
A:
Z:Eric Forgeot - http://anamnese.online.fr

L:1/4
Q:1/4=120
K:C
M:4/4
cc | gf/2e/2fg | +++edf/2e/2f/2e/2 | dcd+++B | c2 :|| cB/2c/2 |
dGc B/2c/2 | +++d2 f/2e/2d/2c/2 | B/2A/2B/2c/2 dd | G2 cc | gf/2e/2f g |
+++edf/2e/2f/2e/2 | +++dcd+++B | c2 |]

